X:1
T:James Gibb editions
T:Factum est silentium - Vento
T:#
%%score [ 1 2 3 4 ]
L:1/8
Q:1/4=96
M:4/4
K:Bb
V:1 treble nm="Soprano" snm="S"
V:2 treble nm="Alto" snm="A"
V:3 treble-8 nm="Tenor" snm="T"
V:4 bass nm="Bass" snm="B"
V:1
"^allegro moderato""^Factum est silentium""^Ivo de Vento\n(c.1544-1575)"!mf! B6 B2 | G2 F2 B2 c2 | %2
w: Fa- ctum|est sí- len- ti-|
!<(! (dB f4)!<)! e2 | d4"^," c2 !>!d2- | d2 d2 B2 A2 | G3 G"^," F2 A2 |[M:4/4] (AF c3"^," B B2- | %7
w: um * * in|coe- lo, fa\-|* ctum est si-|len- ti- um in|coe\- * * * *|
 BA/G/ A2) B4 | z2!f! !>!B4 B2 | G2 F2 B2 c2 |"^," d2 B2 (!>!f3 e | d4 c4) |"^," d2 !>!d4 d2 | %13
w: * * * * lo,|fa- ctum|est si- len- ti-|um in coe\- *||lo, fa- ctum|
 B2 G2 B2 c2 | d2 d2 (!>!d3 c | B4) A4 | z2 B2 B4 | A2 G2 !>!F3 F | B4 !>!c4 | F4 z2 c2 | %20
w: est si- len- ti-|um in coe\- *|* lo,|dum dra-|co com- mit- te-|ret bel-|lum, dum|
 d4 B2 B2 | (!>!B3 c d2) c2 | (B3 G"^," c2) (!>!B2- | BA/G/ A2)"^," B2 F2- | F2 !>!B3 B A2 | %25
w: dra- co com-|mit\- * * te-|ret * * bel\-|* * * * lum, com\-|* mit- te- ret|
 (B"^,"A AG/F/ G4 |"^," A2)!p![Q:1/4=87] A2 B4- |"^un poco più lento" B2 B2"^," A4 | %28
w: bel\- * * * * *|lum, et Mi\-|* cha- el,|
[Q:1/4=87][Q:1/4=87][Q:1/4=87][Q:1/4=87] B4 _A2 F2 | %29
w: et Mi- cha-|
"^," G2"^accel."[Q:1/4=88] G4[Q:1/4=90] !>!!courtesy!=A2- | %30
w: el pu- gna\-|
[Q:1/4=92] A2"^,"[Q:1/4=94] B4"^tempo Imo"[Q:1/4=96] A2 | G4"^," A2!mf! A2 | B4"^," c2 F2 | %33
w: * vit cum|e- o, pu-|gna- vit cum|
 B4 (A4- |[Q:1/4=96][Q:1/4=96][Q:1/4=96][Q:1/4=96] A2 GF G4 | A4) z4 | z2!f! F2 B2 B2- | %37
w: e- o,|||et fe- cit|
 B2 A2 (B3 A | G"^,"F F4) E2 |"^," F4 F4 | A4 G2 e2- | e2 (!>!d3"^," c c2- | %42
w: * vi- cto\- *|* * * ri-|am, et|fe- cit vi\-|* cto\- * *|
 c2 =B2)"^," c2"^più mosso"[Q:1/4=112] G2- | G2 F4 =E2 |:"^," F2 A2 (G3 A | B4) A4 | G4 z2 B2- | %47
w: * ri- am. Al\-|* le- lu-|ja, al- le\- *|* lu-|ja, al\-|
[Q:1/4=112][Q:1/4=112][Q:1/4=112][Q:1/4=112] B2 A4 G2 | F4 z2 F2- | F2 (B3 A G2- | %50
w: * le- lu-|ja, al\-|* le\- * *|
 G"^,"F F4) =E2 :|!ff!"^lento"[Q:1/4=95] F8- | !fermata!F8 |] %53
w: * * * lu\-|ja.||
V:2
 z8 | z4 z2!mf! F2- | F2 F2 D2 C2 | F2 G2"^," A2 B2 | (F3 DED F2- | FE/D/ E2)"^," F4 | %6
w: |Fa\-|* ctum est si-|len- ti- um in|coe\- * * * *|* * * * lo,|
[M:4/4] z2 !>!F4 F2 | G2 F2 E2 D2 | G2 F2 !>!E4 | D4 z2 !>!F2- | F2 F2 D2 C2 | %11
w: fa- ctum|est si- len- ti-|um in coe-|lo, fa\-|* ctum est si-|
 F2!<(! G2 A2 A2!<)! | (B4 F4) | G4 z2 !>!F2- | F2 F2 D2 B,2 | D2 E2"^," F2 F2- | %16
w: len- ti- um in|coe\- *|lo, fa\-|* ctum est si-|len- ti- um in|
 F2 (G3"^," F F2- | FE/D/ E2)"^," F2 D2 | F4 E2 E2 | D3 D C2 (F2- | F"^,"B, B3 AGF | %21
w: * coe\- * *|* * * * lo, dum|dra- co com-|mit- te- ret bel\-||
 GA B3 A/G/ A2 |"^," B2) G2 (G2 FE | F4"^," F4 | D4 !>!F3 F |"^," G2 (!>!F3 =E/D/ E2) | %26
w: |lum, dum dra\- * *|* co|com- mit- te-|ret bel\- * * *|
"^," F4!p! D4 | D2 =E2"^," F2 F2 | FD F3 !courtesy!_EDC | D3)"^accel." D"^," =E2 E2 | %30
w: lum, et|Mi- cha- el, et|Mi\- * * * * *|* cha- el pu-|
 !>!F2 F2 G2 (!>!F2- | F=E/D/ E2)"^," F2!mf! F2 | !courtesy!_E2 D2 C2 !>!D2 | (D2 CB,"^," C2) C2 | %34
w: gna- vit cum e\-|* * * * o, pu-|gna- vit cum e-|o, * * * et|
 !>!F2 F4 =E2 | F3 F"^," F2!f! B,2 | !>!F2 F4 =E2 | (F3 !courtesy!_EDB, E2- | ED C3"^," B, B,2- | %39
w: fe- cit vi-|cto- riam, * et|fe- cit vi-|cto\- * * * *||
 B,2) A,2"^," B,2 B,2 | !>!F2 (F4 ED | C2 D2 !>!E2 C2 |"^," G2 G4 (E2- | EDCB, C3) C |: C4 z2 E2 | %45
w: * ri- am, et|fe- cit * *|* vi- cto- ri-|am. Al- le\-|* * * * * lu-|ja, al-|
 D3 EFG F2- | F2) =E2"^," F2 D2 | C3 C"^," C2 !>!C2- | C2 B,4 A,2 |"^," B,2 (D3 C D2) | %50
w: le\- * * * *|* lu- ja, al-|le- lu- ja, al\-|* le- lu-|ja, al\- * *|
 (EDCB, C3) C :|"^," C2!ff! C2 D3 D | !fermata!C8 |] %53
w: le\- * * * * lu-|ja, al- le- lu-|ja.|
V:3
 z8 | z8 | z8 | z4 z2!mf! B2- | B2 B2 G2 F2 | B2 c2"^," d2 c2 |[M:4/4][K:treble-8] (c2 BA d4 | %7
w: |||Fa\-|* ctum est si-|len- ti- um in|coe\- * * *|
 c4)"^," B2 !>!B2- | B2 B2 G2 G2 | (B3 c d2) c2 | (fedc"^," B2) A2 | B4"^," F2 !>!f2- | %12
w: * lo, fa\-|* ctum est si-|len\- * * ti-|um * * * * in|coe- lo, fa\-|
 f2 f2 d2 B2 | e3 e"^," d2 c2 | (Bcde f4) | g4 z2 c2 | d4 B2 d2 | (c3 G B2) A2 | %18
w: * ctum est si-|len- ti- um in|coe\- * * * *|lo, dum|dra- co com-|mit\- * * te-|
"^," d2 (B3"^," A AG/A/ | B4) F4 | z2 f2 !>!g4 | e2 g2 !>!f3 f |"^," d2 (e3"^," d dc/B/) | %23
w: ret bel\- * * * *|* lum,|dum dra-|co com- mit- te-|ret bel\- * * * *|
"^," c2 c2 d4 |"^," B2 B2 c3 c | e2 !>!f2"^," c2!p! c2- | c2 (!>!d3 cBA | B3 B)"^," c2 c2 | %28
w: lum, dum dra-|co com- mit- te-|ret bel- lum, et|* Mi\- * * *|* cha- el, et|
 (dB d3"^," c c2- | c2"^accel." =B2)"^," c2 c2 | d4 =e2 f2 | c4 c4 | %32
w: Mi\- * * * *|* cha- el pu-|gna- vit cum|e- o|
 z2!mf! !courtesy!_B2 !>!f2 f2- | f2 =e2 (!>!f3 _e | d2 d2 c4 | z2!f! c2 !>!d2 d2- | %36
w: et fe- cit|* vi- cto\- *|* ri- am,|et fe- cit|
 d2 c2 (!>!d2 cB | d2) c2"^," B2 G2 | B2 A2 B4 | !>!c3 c d4 | z4 z2 c2 | !>!g2 g4 f2 | %42
w: * vi- cto\- * *|* ri- am, et|fe- cit vi-|cto- ri- am,|et|fe- cit vi-|
 !>!e2 d2"^," e2 c2 | B"^,"A AG/F/ G2) G2 |:"^," A2 c4 (B2- | Bc d4) c2 | c2 z c c2 f2 | %47
w: cto- ri- am. Al-|le\- * * * * * lu-|ja, al- le\-|* * * lu-|ja, al- le- lu-|
"^," f2 !>!f4 e2- | e2 d2"^," c2 c2 | (dcBA G2) (B2- | B"^,"A AG/F/ G4) :|"^," A2!ff! A2 A2 B2 | %52
w: ja, al- le\-|* lu- ja.~, al-|le\- * * * * lu\-||ja, al- le- lu-|
 !fermata!A8 |] %53
w: ja.|
V:4
 z8 | z8 | z8 | z8 | z8 | z4!mf! F,4- |[M:4/4] F,2 F,2 D,2 B,,2 | E,2 F,2 (G,3 F, | %8
w: |||||Fa\-|* ctum est si-|len- ti- um *|
"^," E,2) D,2 (E,3 F, | G,A, B,3 A,/G,/ A,2) | B,4 z4 | z8 |!f! B,6 B,2 | G,2 E,2 G,2 A,2 | %14
w: * in coe\- *||lo,||fa- ctum|est si- len- ti-|
"^," B,2 B,2 (!>!B,3 A, | G,4 F,4) | B,4 z4 | z2 C,2 D,4 | B,,2 D,2 C,3 C, | %19
w: um in coe\- *||lo,|dum dra-|co com- mit- te-|
"^," B,,2 (B,3 A,/G,/ A,2) | B,4 z4 | z4 z2 F,2 | G,4 E,2 G,2 | F,3 F,"^," B,,2 (B,2- | %24
w: ret bel\- * * *|lum,|dum|dra- co com-|mit- te- ret bel\-|
 B,A, G,2 F,4) | z8 |!p! F,4 G,4- | G,2 G,2"^," F,4 | B,4 F,2 _A,2 | G,4 z4 | z8 | z4!mf! F,4 | %32
w: * * * lum,||et Mi\-|* cha- el,|et Mi- cha-|el||pu-|
 G,4 A,2 B,2 | G,4 F,4 | z8 |!f! F,4 !>!B,2 B,2- | B,2 A,2 B,2 G,2 |"^," F,2 F,2 G,4 | %38
w: gna- vit cum|e- o,||et fe- cit|* vi- cto- ri-|am, et fe-|
 E,2 F,2 (G,4 | F,3) F, B,,4 | z2 F,2 !>!C2 C2- | C2 =B,2 !>!C2 _A,2 |"^," G,4 C,4 | %43
w: cit vi- cto\-|* ri- am,|et fe- cit|* vi- cto- ri-|am. Al-|
 E,2 F,2"^," C,4 |: F,4 (E,3 F, | G,2) G,2 F,4 | z2 C2 A,2 B,2 | F,4 z2 C2 | A,2 B,2 F,4 | %49
w: le- lu- ja,|al- le\- *|* lu- ja,|al- le- lu-|ja, al-|le- lu- ja,|
 z4 z2 G,2 | E,2 F,2 C,4 :|!ff! F,4 D,2 B,,2 | !fermata!F,8 |] %53
w: al-|le- lu- ja,|al- le- lu-|ja.|

